;Filament used: 0.329254m
;Layer height: 1
;Generated with Cura_SteamEngine 2.7.0
M104 S210
M109 S210

;LAYER_COUNT:10
;LAYER:0
M107
G0 F4500 X-4.792 Y-.269 Z1
;TYPE:WALL-OUTER
G1 F2534.7 X-4.775 Y-.496 E0.03786
G1 X-4.741 Y-.746 E0.07981
G1 X-4.694 Y-1.004 E0.12343
G1 X-4.638 Y-1.237 E0.16328
G1 X-4.566 Y-1.479 E0.20527
G1 X-4.483 Y-1.716 E0.24703
G1 X-4.383 Y-1.958 E0.29057
G1 X-4.28 Y-2.174 E0.33037
G1 X-4.154 Y-2.404 E0.37398